!!!id: 18xx:1694
!!!COM: Moniuszko, Stanisław
!!!OTL: Zawód
!!!PDT:
!!!SMS-siglum: PL-Wtm
!!!SMS-shelfmark: R 730/14/M
!!!NIFC-rismID: 1001099799
!!!URL-scan: http://repozytorium.nifc.pl/skany/pl-wtm-nut--r730m-1-43
!!!ONB-nifc: Skan 0020, No. 766
!!!SMS-variant:
!!!SMS-altvar:
**kern	**kern	**kern	**text	**text
*part2	*part2	*part1	*part1	*part1
*staff3	*staff2	*staff1	*staff1	*staff1
*I"[Fortepian]	*	*I"[Głos]	*	*
*I'pf	*	*I'V	*	*
*clefF4	*clefG2	*clefG2	*	*
*k[]	*k[]	*k[]	*	*
*M2/4	*M2/4	*M2/4	*	*
*>[A,B,B1,B,B2]	*>[A,B,B1,B,B2]	*>[A,B,B1,B,B2]	*	*
=1	=1	=1	=1	=1
*>A	*>A	*>A	*	*
!!LO:TX:t=P:problem:all\right:global
!	!LO:TX:a:t=lig<...>	!LO:TX:a:B:i:t=allegro.	!	!
4C/	8r	2r	.	.
.	8c/ 8e 8g	.	.	.
4GG/	8r	.	.	.
!LO:TX:t=[segno]	!LO:TX:t=[segno]	!LO:TX:t=[segno]	!	!
.	8B/ 8d 8g	.	.	.
=2||:	=2||:	=2||:	=2||:	=2||:
*>B	*>B	*>B	*	*
2C/	8r	4r	.	.
*	*tremolo	*	*	*
.	8c/L 8e 8g	.	.	.
.	8c/ 8e 8g	8.g/	,,Ach	,,Zbłą-
.	8c/J 8e 8g	.	.	.
.	.	16cc\	Dziew-	-dził
*	*Xtremolo	*	*	*
=3	=3	=3	=3	=3
8GG/	8r	8b\	-czyn-	Pan?
8r	8B/ 8d 8g	8a/	-ko	ja
4G\ 4B	8r	8g/	zmi-	tu
.	8d/ 8f	8f/	-łuj	Ja-
=4	=4	=4	=4	=4
4C\ 4G	8r	8f/	że	-go-
.	8c/L 8e	8e/	się	-dy
4r	8c/ 8d#X 8f#X 8a	8d#X/	coż	z_Mat-
.	8c/J 8e 8g	8e/	ty	-ką
=5	=5	=5	=5	=5
8GG/	8r	8.g/	sa-	zbi-
8r	8B/ 8d 8g	.	.	.
.	.	16d/	-ma	-ram
!	!	!LO:TX:a:i:t=Zawód. /z Militeli./	!	!
4G\	8r	8g/	ro-	a
.	8B/ 8d 8f	8d/	-bisz	u
=6	=6	=6	=6	=6
4C\ 4G	8r	8e/	w_le-	trzo-
.	8c/ 8e	8f/	-sie	-dy
4C\ 4G	8r	8g/	da-	ot
.	8c/ 8e	8cc\	-way	i
=7	=7	=7	=7	=7
4C\ 4G	8r	8b\	prę-	bra-
.	8d/ 8f	8a/	-dzey	-cia
4GG\ 4G	8r	8g/	rącz-	cho-
.	8B/ 8d 8f	8f/	-kę	-dzą
=8	=8	=8	=8	=8
4C/ 4G	8r	8f/	ma-	stra-
.	8c/L 8e	8e/	-ła	-żą
8BB/L	8G#X/ 8d 8e	8e/	byś	o-
8GG#X/J	8B/J 8d 8e	8e/	mi	-ni
!!LO:LB:g=original
=9	=9	=9	=9	=9
4AA/	8r	8.a/	dro-	dro-
.	8c/ 8e	.	.	.
.	.	16e/	-gę	-gę
!LO:TX:t=P:problem:mixed beam	!	!	!	!
8.E\L	8.e/L 8.cc	8.cc\	po-	wnet
!	!LO:N:vis=8	!	!	!
16EE/Jk	16d/Jk 16b	16b\	-Ka-	po-
=10	=10	=10	=10	=10
4AA/	8r	8b\	-za-	-ka-
.	8c/ 8a	8a/	-ła.	-żą
8A\	8r	8.cc\	Tyś	ty
8r	8c/ 8e 8a	.	.	.
.	.	16b\	tu	już
=11	=11	=11	=11	=11
!LO:TX:t=P:problem:mixed beam	!	!	!	!
8AA/L	8r	8a/	pew-	tra-
8A\	8c/ 8e 8a	8g/	-nie	-fię
8AA/	8r	8f/	O-	i
8A\J	8c#X/ 8e 8g	8e/	-ko-	sam
=12	=12	=12	=12	=12
*2\right	*	*	*	*
2D\ 2A	8r	8g/	-licz-	mo-
*	*tremolo	*	*	*
.	8d/L 8f	8f/	-na	-że!
.	.	8qg/	.	.
.	8d/ 8f	8f/	a	Ni
.	8d/J 8f	8e/	jam	wie-
*	*Xtremolo	*	*	*
=13	=13	=13	=13	=13
4F\ 4A	8r	8f/	zbłą-	-dzia-
.	8c/ 8f	8g/	-dził	-łem,
4F\ 4A	8r	8a/	ży-	co
.	8c/ 8f	8b/	-cie	za
=14	=14	=14	=14	=14
2C/ 2G	8r	8cc\	mo-	szko-
*	*tremolo	*	*	*
.	8c/L 8e	8g/	-je	-da!
.	8c/ 8e	8.g/	zmi-	a
.	8c/J 8e	.	.	.
.	.	16cc\	-łuy	jam
*	*Xtremolo	*	*	*
=15	=15	=15	=15	=15
4BB/ 4G	8r	8.b\	że	myś-
.	8d/ 8f	.	.	.
.	.	16a\	się	-lał
4GG/ 4G	8r	8.g/	ja-	żal
.	8B/ 8d 8f	.	.	.
.	.	16f/	-kaś	się
=16	=16	=16	=16	=16
*^	*	*	*	*
4G/	2C\	8r	8f/	slicz-	Bo-
.	.	8c/L 8e	8e/	-na	-że!
4r	.	8c/ 8d#X 8f#X 8a	8d#X/	bę-	że
.	.	8c/J 8e 8g	8e/	-dziem	i
*v	*v	*	*	*	*
!!LO:LB:g=original
=17	=17	=17	=17	=17
4G\ 4d	8r	8g/	so-	dla
.	8d/ 8e 8g	8d/	-bie	mnie
4G\ 4d	8r	8.a/	iść	ta
.	8d/ 8e 8g	.	.	.
.	.	16g/	we	ja-
=18	=18	=18	=18	=18
2C\ 2c	8r	8g/	dwo-	-go-
*	*tremolo	*	*	*
.	8e/L 8g 8cc	8ee\	-je	-da,
.	8e/ 8g 8cc	8dd\	zmi-	a
.	8e/J 8g 8cc	8cc\	-łuy	jam
*	*Xtremolo	*	*	*
=19	=19	=19	=19	=19
2D#X\ 2B	8r	8b/	że	myś-
*	*tremolo	*	*	*
.	8f#X/L 8a	8a/	się	-lał
.	8f#/ 8a	8g/	ja-	żal
!	!	!LO:SIC:v:s=8f#	!	!
.	8f#/J 8a	[8f/	-keś	się
*	*Xtremolo	*	*	*
=20	=20	=20	=20	=20
.	.	8qg/	.	.
!LO:SIC:v:n=1:s=4D#	!	!LO:SIC:v:s=8f#	!	!
4D\ 4B	8r	8f/]	ślicz-	Bo-
.	8e/ 8g	8e/	-na	-że!
4F\ 4A	8r	8a/	bę-	że
.	8d/ 8f	8d/	-dziem	i
=21	=21	=21	=21	=21
4BB\ 4G	8r	8g/	so-	dla
.	8c/ 8e	8c/	-bie	mnie
4ryy	8.GG</L 8.G< 8.e	8.e/	iść	.
.	16F</Jk 16d/	16d/	we	tu
=22	=22	=22	=22	=22
!LO:TX:t=1mo	!	!	!	!
*>B1	*>B1	*>B1	*	*
.	.	8qd/	.	.
!LO:N:vis=4	!	!	!	!
8CC/ 8GG	8G</ 8c	8c/	dwo-	ja-
8r	8c/ 8e 8g	8c/	-ie	.
4GG/	8r	4r	.	.
!LO:TX:t=[segno]	!LO:TX:t=[segno]	!LO:TX:t=[segno]	!	!
.	8B/ 8d 8g	.	.	.
=23:||	=23:||	=23:||	=23:||	=23:||
!LO:TX:t=2do	!	!	!	!
*>B2	*>B2	*>B2	*	*
.	.	8qd/	.	.
8C/	8c/	8c/	.	-go-
8r	8r	8c/	.	-da.
!LO:TX:t=P:problem:przednutki jako triola	!	!	!	!
!LO:TUP:b:problem:klamra łukowa	!	!	!	!
(16qqC/LL	16qqcc/LL	.	.	.
16qqGG/	16qqee/	.	.	.
16qqEE/JJ)	16qqgg/JJ	.	.	.
4CC/ 4C	4cc\ 4ee 4gg 4ccc	4r	.	.
!!LO:PB:g=original
==	==	==	==	==
*-	*-	*-	*-	*-
!!!system-decoration: s1{(s2,s3)}
!!!RDF**kern: < = below
!!!RDF**kern: > = above
!!!ENC: Tomasz Grochalski
!!!END: 2021-03-30
!!!ENC: Marta Chmielewska
!!!END: 2021-04-19
